resources/icons/cisco/terminal.svg

<?xml version="1.0" encoding="UTF-8"?>
<svg xmlns="http://www.w3.org/2000/svg" xmlns:xlink="http://www.w3.org/1999/xlink" width="205pt" height="200pt" viewBox="0 0 205 200" version="1.1">
<defs>
<clipPath id="clip1">
  <path d="M 0 134 L 205 134 L 205 192.570312 L 0 192.570312 Z M 0 134 "/>
</clipPath>
</defs>
<g id="surface1">
<path style="fill-rule:nonzero;fill:rgb(1.176471%,41.176471%,59.607843%);fill-opacity:1;stroke-width:4;stroke-linecap:butt;stroke-linejoin:miter;stroke:rgb(100%,100%,100%);stroke-opacity:1;stroke-miterlimit:4;" d="M 46.678002 43.487079 L 256.248827 43.487079 L 256.248827 82.672776 L 46.678002 82.672776 Z M 46.678002 43.487079 " transform="matrix(0.740278,0,0,-0.742857,0,200)"/>
<path style=" stroke:none;fill-rule:nonzero;fill:rgb(1.176471%,41.176471%,59.607843%);fill-opacity:1;" d="M 215.953125 112.039062 L 215.953125 141.433594 L 189.695312 167.980469 L 189.695312 138.585938 L 34.40625 138.585938 "/>
<path style="fill:none;stroke-width:4;stroke-linecap:butt;stroke-linejoin:miter;stroke:rgb(100%,100%,100%);stroke-opacity:1;stroke-miterlimit:4;" d="M 291.719043 118.408954 L 291.719043 78.839393 L 256.248827 43.103215 L 256.248827 82.672776 L 46.477486 82.672776 M 48.160765 118.408954 L 291.719043 118.408954 " transform="matrix(0.740278,0,0,-0.742857,0,200)"/>
<path style="fill-rule:nonzero;fill:rgb(1.176471%,41.176471%,59.607843%);fill-opacity:1;stroke-width:4;stroke-linecap:butt;stroke-linejoin:miter;stroke:rgb(100%,100%,100%);stroke-opacity:1;stroke-miterlimit:4;" d="M 256.248827 82.672776 L 291.719043 118.408954 " transform="matrix(0.740278,0,0,-0.742857,0,200)"/>
<path style="fill-rule:nonzero;fill:rgb(1.176471%,41.176471%,59.607843%);fill-opacity:1;stroke-width:4;stroke-linecap:butt;stroke-linejoin:miter;stroke:rgb(100%,100%,100%);stroke-opacity:1;stroke-miterlimit:4;" d="M 46.477486 83.487831 L 255.96916 83.487831 L 255.96916 241.424279 L 46.482763 241.424279 L 46.482763 83.487831 Z M 46.477486 83.487831 " transform="matrix(0.740278,0,0,-0.742857,0,200)"/>
<path style=" stroke:none;fill-rule:nonzero;fill:rgb(1.176471%,41.176471%,59.607843%);fill-opacity:1;" d="M 189.496094 137.980469 L 215.953125 111.429688 L 215.953125 -5.890625 L 60.875 -5.890625 L 34.410156 20.65625 L 189.496094 20.65625 L 189.496094 137.980469 "/>
<path style="fill:none;stroke-width:4;stroke-linecap:butt;stroke-linejoin:miter;stroke:rgb(100%,100%,100%);stroke-opacity:1;stroke-miterlimit:4;" d="M 255.979714 83.487831 L 291.719043 119.229267 L 291.719043 277.160457 L 82.232645 277.160457 L 46.482763 241.424279 L 255.979714 241.424279 Z M 255.979714 83.487831 " transform="matrix(0.740278,0,0,-0.742857,0,200)"/>
<path style="fill-rule:nonzero;fill:rgb(1.176471%,41.176471%,59.607843%);fill-opacity:1;stroke-width:4;stroke-linecap:butt;stroke-linejoin:miter;stroke:rgb(100%,100%,100%);stroke-opacity:1;stroke-miterlimit:4;" d="M 64.798311 101.771334 L 237.690549 101.771334 L 237.690549 223.140775 L 64.798311 223.140775 Z M 64.798311 101.771334 " transform="matrix(0.740278,0,0,-0.742857,0,200)"/>
<path style="fill-rule:nonzero;fill:rgb(1.176471%,41.176471%,59.607843%);fill-opacity:1;stroke-width:4;stroke-linecap:butt;stroke-linejoin:miter;stroke:rgb(100%,100%,100%);stroke-opacity:1;stroke-miterlimit:4;" d="M 255.979714 241.424279 L 291.719043 277.160457 " transform="matrix(0.740278,0,0,-0.742857,0,200)"/>
<path style=" stroke:none;fill-rule:nonzero;fill:rgb(1.176471%,41.176471%,59.607843%);fill-opacity:1;" d="M 182.03125 188.992188 L 182.03125 171.726562 L 3.582031 171.726562 L 23.890625 151.359375 L 202.332031 151.359375 L 202.332031 168.625 L 182.03125 188.992188 "/>
<g clip-path="url(#clip1)" clip-rule="nonzero">
<path style="fill:none;stroke-width:4;stroke-linecap:butt;stroke-linejoin:miter;stroke:rgb(100%,100%,100%);stroke-opacity:1;stroke-miterlimit:4;" d="M 245.895872 14.818209 L 245.895872 38.060397 L 4.838766 38.060397 L 32.272514 65.477764 L 273.319067 65.477764 L 273.319067 42.235577 Z M 245.895872 14.818209 " transform="matrix(0.740278,0,0,-0.742857,0,200)"/>
</g>
<path style="fill-rule:nonzero;fill:rgb(1.176471%,41.176471%,59.607843%);fill-opacity:1;stroke-width:4;stroke-linecap:butt;stroke-linejoin:miter;stroke:rgb(100%,100%,100%);stroke-opacity:1;stroke-miterlimit:4;" d="M 4.838766 14.818209 L 245.890596 14.818209 L 245.890596 38.060397 L 4.838766 38.060397 Z M 4.838766 14.818209 " transform="matrix(0.740278,0,0,-0.742857,0,200)"/>
<path style="fill-rule:nonzero;fill:rgb(1.176471%,41.176471%,59.607843%);fill-opacity:1;stroke-width:4;stroke-linecap:butt;stroke-linejoin:miter;stroke:rgb(100%,100%,100%);stroke-opacity:1;stroke-miterlimit:4;" d="M 245.895872 38.060397 L 273.319067 65.477764 " transform="matrix(0.740278,0,0,-0.742857,0,200)"/>
</g>
</svg>

<svg xmlns="http://www.w3.org/2000/svg" viewBox="0 0 36.25 35" height="35" width="36.25"><defs><clipPath id="a"><path d="M0 10v269h290V10H0z"/></clipPath></defs><g clip-path="url(#a)" transform="matrix(.13 0 0 -.13 0 35)"><path d="M46.68 43.488h209.57v39.184H46.68V43.488z" fill="#036998"/><path d="M46.68 43.488h209.57v39.184H46.68V43.488z" fill="none" stroke="#fff" stroke-width="4"/><path d="M291.719 118.41V78.84L256.25 43.102v39.57H46.48" fill="#036998"/><path d="M291.719 118.41V78.84L256.25 43.102v39.57H46.48M48.16 118.41H291.72" fill="none" stroke="#fff" stroke-width="4"/><path d="M256.25 82.672l35.469 35.738" fill="#036998"/><path d="M256.25 82.672l35.469 35.738" fill="none" stroke="#fff" stroke-width="4"/><path d="M46.48 83.488h209.488v157.934H46.482V83.488z" fill="#036998"/><path d="M46.48 83.488h209.488v157.934H46.482V83.488z" fill="none" stroke="#fff" stroke-width="4"/><path d="M255.98 83.488l35.739 35.742v157.93H82.231l-35.75-35.738H255.98V83.488" fill="#036998"/><path d="M255.98 83.488l35.739 35.742v157.93H82.231l-35.75-35.738H255.98V83.488z" fill="none" stroke="#fff" stroke-width="4"/><path d="M64.8 101.77h172.892v121.371H64.8V101.77z" fill="#036998"/><path d="M64.8 101.77h172.892v121.371H64.8V101.77z" fill="none" stroke="#fff" stroke-width="4"/><path d="M255.98 241.422l35.739 35.738" fill="#036998"/><path d="M255.98 241.422l35.739 35.738" fill="none" stroke="#fff" stroke-width="4"/><path d="M245.898 14.82V38.06H4.84L32.27 65.48h241.05V42.238L245.898 14.82" fill="#036998"/><path d="M245.898 14.82V38.06H4.84L32.27 65.48h241.05V42.238L245.898 14.82z" fill="none" stroke="#fff" stroke-width="4"/><path d="M4.84 14.82h241.05V38.06H4.84V14.82z" fill="#036998"/><path d="M4.84 14.82h241.05V38.06H4.84V14.82z" fill="none" stroke="#fff" stroke-width="4"/><path d="M245.898 38.059L273.32 65.48" fill="#036998"/><path d="M245.898 38.059L273.32 65.48" fill="none" stroke="#fff" stroke-width="4"/></g></svg>
